X:12
T: Baym Rebin's Sude (At the Rabbi's Table)
O:klezmer
Z: John Chambers <jc@trillian.mit.edu>
M: 2/4
L: 1/16
K: E^G
"(A)"ED \
|: "E"^CDE2 E2E2 | E8 | "E"GAB2 "Dm"AGF2 | "E"E8 \
| G4 "Am"A4 | "E"B4 "Am"A4 | "E"G6 F2 | G2F2 E2D2 |
| "E"^CDE2 E2E2 | E8 | EFG2 "Dm"FED2 | D8 \
| d2c2 B2A2 | G2D2 E2F2 | "E"E8- | E4 z4 :|
|: "Am"E2A2 G2A2 | "E7"B2c2 B2E2 | "Am"A6 Bc | A8 \
| "Dm"d4 "E7"e4 | "Dm"d4 "Am"c4 | "E"B6 A2 | B2A2 G4 |
| "E"G4 "Am"A4 | "E"B4 "Am"A4 | "E"G6 F2 | G2F2 E2D2 \
| "Dm"G2A2 A2A2 | GBAG FEDF | "E"E4- | EGBG | E8 :|
|: "Am"cBcB cBA2 | "Dm"AGAG AGF2 | "E"EFG2 "Dm"FED2 | D8 \
| G2A2 A2A2 | GBA2 G2A2 | "E"B4- BAGF | E8 |
| "Am"cBcB cBA2 | "Dm"AGAG AGF2 | "E"EFG2 "Dm"FED2 | D8 \
| "Dm"d2c2 B2A2 | G2D2 E2F2 | "E"E8- | E8 :|





